X: 073
T: Major Webster's Delight
C: attr. John French (1753-1803)
R: reel
B: "John French Collection", John French ed. p.7 #3
S: http://www.heallan.com/french.asp
Z: 2012 John Chambers <jc:trillian.mit.edu>
M: C
L: 1/8
K: G
c | BGDG FA-Ac | BgdB c2Bd | efgB cBAc | BdDF G2G, :|
g | gdbd fdad | egfa g2(dB) | caAc BgGB | ABcd egfa |
    gdbd fdad | egfa g2(dB) | caAc Bgec | BdDF G2G, |]

%%sep 2 1 500
%%sep 1 1 500

